svg/fluentui-system-icons/ic_fluent_panel_left_text_dismiss_48_regular.svg

<svg width="48" height="48" viewBox="0 0 48 48" fill="none" xmlns="http://www.w3.org/2000/svg">
<path d="M8.5 15C8.5 14.3096 9.05964 13.75 9.75 13.75H13.25C13.9404 13.75 14.5 14.3096 14.5 15C14.5 15.6904 13.9404 16.25 13.25 16.25H9.75C9.05964 16.25 8.5 15.6904 8.5 15ZM8.5 24C8.5 23.3096 9.05964 22.75 9.75 22.75H13.25C13.9404 22.75 14.5 23.3096 14.5 24C14.5 24.6904 13.9404 25.25 13.25 25.25H9.75C9.05964 25.25 8.5 24.6904 8.5 24ZM9.75 31.75C9.05964 31.75 8.5 32.3096 8.5 33C8.5 33.6904 9.05964 34.25 9.75 34.25H13.25C13.9404 34.25 14.5 33.6904 14.5 33C14.5 32.3096 13.9404 31.75 13.25 31.75H9.75ZM4 13.25C4 9.79822 6.79822 7 10.25 7H37.75C41.2018 7 44 9.79822 44 13.25V25.6191C43.2476 24.8971 42.4086 24.2647 41.5 23.7392V13.25C41.5 11.1789 39.8211 9.5 37.75 9.5H19L19 38.5H22.4766C22.7203 39.3739 23.053 40.2107 23.4644 41H10.25C6.79822 41 4 38.2018 4 34.75V13.25ZM10.25 9.5C8.17893 9.5 6.5 11.1789 6.5 13.25V34.75C6.5 36.8211 8.17893 38.5 10.25 38.5H16.5L16.5 9.5H10.25ZM46 35C46 41.0751 41.0751 46 35 46C28.9249 46 24 41.0751 24 35C24 28.9249 28.9249 24 35 24C41.0751 24 46 28.9249 46 35ZM40.7071 30.7071C41.0976 30.3166 41.0976 29.6834 40.7071 29.2929C40.3166 28.9024 39.6834 28.9024 39.2929 29.2929L35 33.5858L30.7071 29.2929C30.3166 28.9024 29.6834 28.9024 29.2929 29.2929C28.9024 29.6834 28.9024 30.3166 29.2929 30.7071L33.5858 35L29.2929 39.2929C28.9024 39.6834 28.9024 40.3166 29.2929 40.7071C29.6834 41.0976 30.3166 41.0976 30.7071 40.7071L35 36.4142L39.2929 40.7071C39.6834 41.0976 40.3166 41.0976 40.7071 40.7071C41.0976 40.3166 41.0976 39.6834 40.7071 39.2929L36.4142 35L40.7071 30.7071Z" fill="#212121"/>
</svg>

<svg xmlns="http://www.w3.org/2000/svg" width="48" height="48"><path d="M8.5 15c0-.69.56-1.25 1.25-1.25h3.5a1.25 1.25 0 1 1 0 2.5h-3.5c-.69 0-1.25-.56-1.25-1.25Zm0 9c0-.69.56-1.25 1.25-1.25h3.5a1.25 1.25 0 1 1 0 2.5h-3.5c-.69 0-1.25-.56-1.25-1.25Zm1.25 7.75a1.25 1.25 0 1 0 0 2.5h3.5a1.25 1.25 0 1 0 0-2.5h-3.5ZM4 13.25A6.25 6.25 0 0 1 10.25 7h27.5A6.25 6.25 0 0 1 44 13.25v12.37a13.044 13.044 0 0 0-2.5-1.88V13.25a3.75 3.75 0 0 0-3.75-3.75H19v29h3.477c.243.874.576 1.71.987 2.5H10.25A6.25 6.25 0 0 1 4 34.75v-21.5Zm6.25-3.75a3.75 3.75 0 0 0-3.75 3.75v21.5a3.75 3.75 0 0 0 3.75 3.75h6.25v-29h-6.25ZM46 35c0 6.075-4.925 11-11 11s-11-4.925-11-11 4.925-11 11-11 11 4.925 11 11Zm-5.293-4.293a1 1 0 0 0-1.414-1.414L35 33.586l-4.293-4.293a1 1 0 0 0-1.414 1.414L33.586 35l-4.293 4.293a1 1 0 0 0 1.414 1.414L35 36.414l4.293 4.293a1 1 0 0 0 1.414-1.414L36.414 35l4.293-4.293Z"/></svg>
